X:250
T: Old Hiland Laddie
N: O'Farrell's Pocket Companion v.3 (Sky ed. p.118)
N: "Scotch"
M: 4/4
L: 1/8
R: march
Q: 200
K: Em
G>ABB cA B2| BAAG/A/ BA A2| GABB cB/A/ B>A| GEED/E/ GE E2 :|
P:2
egdg c/B/A/G/ B2| BAAG/A/ BA A2| egdg c/B/A/G/ B>A| GEED/E/ GE E2 :|
P:3
gabb c'a b2| baag/a/ ba a2| gabb c'a b>a| geed/e/ ge e2 :|
P:4
egdg c/B/A/G/ B2| BAAG/A/ BA A2| egdg c/B/A/G/ B>A| GEED/E/ GE E2 :|
